X: 20645
T: KIDDER'S QUICK STEP
C:
%R: quickstep, polka, reel
B: Elias Howe "The Musician's Companion" 1843 p.64 #3
S: http://imslp.org/wiki/The_Musician's_Companion_(Howe,_Elias)
Z: 2015 John Chambers <jc:trillian.mit.edu>
N: Missing 8th-note counts at the ends of strains 1 & 2 fixed by adding rests.
M: 2/4
L: 1/16
K: C
% - - - - - - - - - - - - - - - - - - - - - - - - -
|:\
c2cc c2d2 | e2f2 g4 |\
G2dc B2d2 | c2ed c2G2 |\
c2cc c2d2 | e2f2 g4 |\
G2dc B2G2 | c2c2c2 z2 ::\
c2GG G2c2 | e2e2 c2(de) |\
f2d2A2B2 | (cB).c.e .G2(AB) |
c2GG G2c2 | e2e2 c2de |\
f2d2A2B2 | c2e2c2 z2 ::\
c2(3(E^F^G) c2(3(E^F^G) | A2B2c2A2 |\
d2c2B2A2 | ^G2A2 B4 |\
c2(3(E^F^G) c2(3(E^F^G) | A2B2c2A2 |\
d2ef e2^G2 | A2cB A4 :|
% - - - - - - - - - - - - - - - - - - - - - - - - -

%%sep 1 1 500

